static/assets/img/icons/theme/communication/sending-mail.svg

<svg height="24" viewBox="0 0 24 24" width="24" xmlns="http://www.w3.org/2000/svg"><g fill="none" fill-rule="evenodd"><path d="m0 0h24v24h-24z" opacity="0"/><g fill="#000"><path d="m4 16h1c.55228475 0 1 .4477153 1 1s-.44771525 1-1 1h-1c-.55228475 0-1-.4477153-1-1s.44771525-1 1-1zm-3-5h4c.55228475 0 1 .4477153 1 1s-.44771525 1-1 1h-4c-.55228475 0-1-.4477153-1-1s.44771525-1 1-1zm2-5h2c.55228475 0 1 .44771525 1 1s-.44771525 1-1 1h-2c-.55228475 0-1-.44771525-1-1s.44771525-1 1-1z" opacity=".3"/><path d="m10 6h12c1.1045695 0 2 .8954305 2 2v8c0 1.1045695-.8954305 2-2 2h-12c-1.1045695 0-2-.8954305-2-2v-8c0-1.1045695.8954305-2 2-2zm11.0849395 2.0718316-5.0849395 2.6467523-5.0849395-2.6467523c-.3018172-.15709829-.6782343-.04793829-.8407513.24381568-.16251692.29175397-.0495918.65562062.2522254.81271891l5.3792024 2.79991851c.1837058.0956204.4048202.0956204.588526 0l5.3792024-2.79991851c.3018172-.15709829.4147423-.52096494.2522254-.81271891-.162517-.29175397-.5389341-.40091397-.8407513-.24381568z"/></g></g></svg>

<svg width="24px" height="24px" viewBox="0 0 24 24" version="1.1" xmlns="http://www.w3.org/2000/svg" xmlns:xlink="http://www.w3.org/1999/xlink">
    <title>Icon For Sending mail</title>
    <g stroke="none" stroke-width="1" fill="none" fill-rule="evenodd">
        <rect opacity="0" x="0" y="0" width="24" height="24"></rect>
        <path d="M4,16 L5,16 C5.55228475,16 6,16.4477153 6,17 C6,17.5522847 5.55228475,18 5,18 L4,18 C3.44771525,18 3,17.5522847 3,17 C3,16.4477153 3.44771525,16 4,16 Z M1,11 L5,11 C5.55228475,11 6,11.4477153 6,12 C6,12.5522847 5.55228475,13 5,13 L1,13 C0.44771525,13 6.76353751e-17,12.5522847 0,12 C-6.76353751e-17,11.4477153 0.44771525,11 1,11 Z M3,6 L5,6 C5.55228475,6 6,6.44771525 6,7 C6,7.55228475 5.55228475,8 5,8 L3,8 C2.44771525,8 2,7.55228475 2,7 C2,6.44771525 2.44771525,6 3,6 Z" fill="#000000" opacity="0.3"></path>
        <path d="M10,6 L22,6 C23.1045695,6 24,6.8954305 24,8 L24,16 C24,17.1045695 23.1045695,18 22,18 L10,18 C8.8954305,18 8,17.1045695 8,16 L8,8 C8,6.8954305 8.8954305,6 10,6 Z M21.0849395,8.0718316 L16,10.7185839 L10.9150605,8.0718316 C10.6132433,7.91473331 10.2368262,8.02389331 10.0743092,8.31564728 C9.91179228,8.60740125 10.0247174,8.9712679 10.3265346,9.12836619 L15.705737,11.9282847 C15.8894428,12.0239051 16.1105572,12.0239051 16.294263,11.9282847 L21.6734654,9.12836619 C21.9752826,8.9712679 22.0882077,8.60740125 21.9256908,8.31564728 C21.7631738,8.02389331 21.3867567,7.91473331 21.0849395,8.0718316 Z" fill="#000000"></path>
    </g>
</svg>
